X:1
T:Title
%%score ( 1 2 ) { 3 | ( 4 5 ) }
L:1/8
M:4/4
K:Eb
V:1 treble nm="Grand Piano, Unnamed-000"
V:2 treble 
V:3 bass nm="Choir Pad, Unnamed-001"
V:4 bass 
V:5 bass 
V:1
 B2 GE- EG B2 | c [EB]3 B2 GE | EG B2 c [EB]3 | A2 AA A[DB] A2 | G F2 G B2 GE- | EG F2 E F2 [DG] | %6
w: By~14th~Century~German~Carol~melody * * * * *||||||
 [B,E]3 [B,E]- [B,E]/ z/ E B2 | z4 B3 c- | c z z2 z4 | [FB]2 [F=A][DFB]- [DFB]3/2 z/ E2 | %10
w: ||||
 FE-[E-G][EA] B2 AG- | GA [EF]2 [DF] [B,E]3 | [DB]3 G- G2 [DB]2- | [DB] [EG]3 E2 FG- | %14
w: ||||
 GB A2 G F2 G | E3 E- E4- | E4 z4 |] %17
w: |||
V:2
 B,3 C- C3/2 z/ E2- | E z z2 B,3 C- | C2 .E4 z2 | F3 F- F/ z/ z E2- | E D3 [B,D]3 C- | C2 C6 | x8 | %7
 BBB[AB] e2 dG- | G-[GB] [Ge]2 [Fd] [Gc]2 [EB] | x8 | z G z2 [B,E]3 [CE]- | [CE]2 z2 z4 | %12
 z2 z E- E3/2 z/ z2 | z4 z2 z E- | E2 E2- E/ z/ D3 | B,8- | B,4 z4 |] %17
V:3
 G,3 G,- G,2 E,2- | E, G,3 G,3 G,- | G,2 E,2- E,/ z/ G,3 | C4- CB, A,2 | B, B,3 G,,3 C,- | %5
 C,2 A,,2 C, A,,2 B,, | G,3 G,- G,/ z/ E, B,2 | B, B,2 A, B,3 E,- | E,2 G,2 B, G,2 B, | %9
 C2 CB,,- B,,3/2 z/ G,2- | G, G,3 G,,3 B,,- | B,,A,, B,2 A, G,3 | B,3[K:treble] C- C2 B,2- | %13
 B, C3 C3[K:bass] B,- | B,2 C2- C A,3- | A,4 z4 | z8 |] %17
V:4
 E,3 C,- C,2 G,,2 | G,, E,3 E,3 C,- | C,2 G,,2 G,, E,3 | F,4- F,G, C,2 | E, B,,3 z4 | z8 | %6
 E,3 E,- E,/ z/ z z2 | A, G,2 F, G,4 | z2 C,2 D, E,2 G, | F,2 .F,2 z2 E,2- | E, C,3 z4 | %11
 z2 B,,2 B,, E,3 | G,,3 C,- C,2 G,,2- | G,, C,3 A,3 G,- | G,2 F,2- F, B,,3 | z2 z G,- G,4- | %16
 G,4 z4 |] %17
V:5
 x8 | x8 | x8 | x8 | x8 | x8 | x8 | x8 | x8 | x8 | x8 | x8 | x8 | x8 | x8 | E,8- | E,4 z4 |] %17

